templates/main/source/images/delivery__picture.svg

<svg xmlns="http://www.w3.org/2000/svg" width="24" height="24" viewBox="0 0 24 24">
  <path fill="#ba1212" fill-rule="evenodd" d="M10.6951998,16.9999101 C10.1395494,16.9999101 9.73224632,16.6628677 10.1211147,15.179568 L10.7586779,12.5491414 C10.8694601,12.1275775 10.8880688,11.9590563 10.7586779,11.9590563 C10.5918958,11.9590563 9.87050676,12.2501859 9.44442114,12.5367937 L9.16650897,12.0816646 C10.5183308,10.9527986 12.0729346,10.2905398 12.7393673,10.2905398 C13.2950177,10.2905398 13.3873653,10.9477552 13.1099749,11.9590563 L12.3797163,14.724265 C12.2503254,15.2131331 12.3059774,15.3814804 12.4350204,15.3814804 C12.6021504,15.3814804 13.1482356,15.1786984 13.6851035,14.7571345 L14.000059,15.1786984 C12.6851066,16.4934769 11.2505024,16.9999101 10.6951998,16.9999101 M12.7798889,6.66655121 C13.5931038,6.66655121 13.8332769,7.13854973 13.8332769,7.67785238 C13.8332769,8.35211113 13.2932786,8.97541353 12.3729337,8.97541353 C11.6026752,8.97541353 11.2362416,8.58776257 11.2576328,7.94759066 C11.2576328,7.4081141 11.7096314,6.66655121 12.7798889,6.66655121 M11.8931091,4.00064653 C7.47538384,4.05977678 3.94217754,7.68950452 4.00078605,12.1075776 C4.0599163,16.5237377 7.68929621,20.0579874 12.1070215,19.999205 C16.5240511,19.9397269 20.058127,16.3099992 19.9993445,11.8922739 C19.9402143,7.47576606 16.3104865,3.94169019 11.8931091,4.00064653"/>
</svg>

<svg xmlns="http://www.w3.org/2000/svg" width="24" height="24" viewBox="0 0 24 24"><path fill="#ba1212" fill-rule="evenodd" d="M10.695 17c-.555 0-.963-.337-.574-1.82l.638-2.63c.11-.422.13-.59 0-.59-.167 0-.888.29-1.315.577l-.277-.455c1.351-1.13 2.906-1.791 3.572-1.791.556 0 .648.657.371 1.668l-.73 2.765c-.13.49-.074.657.055.657.167 0 .713-.202 1.25-.624l.315.422c-1.315 1.314-2.75 1.82-3.305 1.82M12.78 6.668c.813 0 1.053.472 1.053 1.01 0 .675-.54 1.298-1.46 1.298-.77 0-1.137-.387-1.115-1.027 0-.54.452-1.281 1.522-1.281M11.893 4a8 8 0 00.214 15.998A8 8 0 0011.893 4"/></svg>
